mimes/48/application-x-jar.svg

<?xml version="1.0" encoding="UTF-8" standalone="no"?>
<!-- Created with Inkscape (http://www.inkscape.org/) -->

<svg
   xmlns:svg="http://www.w3.org/2000/svg"
   xmlns="http://www.w3.org/2000/svg"
   xmlns:xlink="http://www.w3.org/1999/xlink"
   version="1.0"
   width="48"
   height="48"
   id="svg3208">
  <defs
     id="defs3210">
    <radialGradient
       cx="5"
       cy="41.5"
       r="5"
       fx="5"
       fy="41.5"
       id="radialGradient3314"
       xlink:href="#linearGradient3681"
       gradientUnits="userSpaceOnUse"
       gradientTransform="matrix(0.5938225,0,0,1.5366531,41.140892,-103.93618)" />
    <linearGradient
       id="linearGradient3703">
      <stop
         id="stop3705"
         style="stop-color:black;stop-opacity:0"
         offset="0" />
      <stop
         id="stop3711"
         style="stop-color:black;stop-opacity:1"
         offset="0.5" />
      <stop
         id="stop3707"
         style="stop-color:black;stop-opacity:0"
         offset="1" />
    </linearGradient>
    <linearGradient
       x1="17.554192"
       y1="46.000275"
       x2="17.554192"
       y2="34.999718"
       id="linearGradient3312"
       xlink:href="#linearGradient3703"
       gradientUnits="userSpaceOnUse"
       gradientTransform="matrix(1.7570316,0,0,1.3969574,-17.394014,-16.411698)" />
    <linearGradient
       id="linearGradient3681">
      <stop
         id="stop3683"
         style="stop-color:black;stop-opacity:1"
         offset="0" />
      <stop
         id="stop3685"
         style="stop-color:black;stop-opacity:0"
         offset="1" />
    </linearGradient>
    <radialGradient
       cx="5"
       cy="41.5"
       r="5"
       fx="5"
       fy="41.5"
       id="radialGradient3310"
       xlink:href="#linearGradient3681"
       gradientUnits="userSpaceOnUse"
       gradientTransform="matrix(0.5938225,0,0,1.5366531,-6.6594735,-103.93618)" />
    <linearGradient
       id="linearGradient3295">
      <stop
         id="stop3297"
         style="stop-color:#c9af8b;stop-opacity:1"
         offset="0" />
      <stop
         id="stop3299"
         style="stop-color:#ad8757;stop-opacity:1"
         offset="0.23942046" />
      <stop
         id="stop3301"
         style="stop-color:#c2a57f;stop-opacity:1"
         offset="0.27582464" />
      <stop
         id="stop3303"
         style="stop-color:#9d7d53;stop-opacity:1"
         offset="1" />
    </linearGradient>
    <linearGradient
       x1="15.464298"
       y1="7.9756851"
       x2="15.464298"
       y2="45.04248"
       id="linearGradient3293"
       xlink:href="#linearGradient3295"
       gradientUnits="userSpaceOnUse" />
    <linearGradient
       id="linearGradient3199">
      <stop
         id="stop3201"
         style="stop-color:#dac197;stop-opacity:1"
         offset="0" />
      <stop
         id="stop3203"
         style="stop-color:#c1a581;stop-opacity:1"
         offset="0.23942046" />
      <stop
         id="stop3205"
         style="stop-color:#dbc298;stop-opacity:1"
         offset="0.27582464" />
      <stop
         id="stop3207"
         style="stop-color:#a68b60;stop-opacity:1"
         offset="1" />
    </linearGradient>
    <linearGradient
       x1="24.822832"
       y1="15.377745"
       x2="24.996943"
       y2="37.27668"
       id="linearGradient3197"
       xlink:href="#linearGradient3199"
       gradientUnits="userSpaceOnUse"
       gradientTransform="matrix(1.2822251,0,0,1.5572619,-6.0701918,-15.290756)" />
    <linearGradient
       id="linearGradient4559">
      <stop
         id="stop4561"
         style="stop-color:white;stop-opacity:0"
         offset="0" />
      <stop
         id="stop4563"
         style="stop-color:white;stop-opacity:0"
         offset="1" />
    </linearGradient>
    <linearGradient
       x1="23.451576"
       y1="30.554907"
       x2="43.00663"
       y2="45.934479"
       id="linearGradient2659"
       xlink:href="#linearGradient4559"
       gradientUnits="userSpaceOnUse"
       gradientTransform="matrix(1.2822251,0,0,1.1746872,-6.0701918,-5.3031677)" />
    <linearGradient
       id="linearGradient3827">
      <stop
         id="stop3829"
         style="stop-color:white;stop-opacity:1"
         offset="0" />
      <stop
         id="stop4295"
         style="stop-color:white;stop-opacity:1"
         offset="0.3021296" />
      <stop
         id="stop4293"
         style="stop-color:white;stop-opacity:0.6901961"
         offset="0.34361121" />
      <stop
         id="stop3832"
         style="stop-color:white;stop-opacity:0"
         offset="1" />
    </linearGradient>
    <linearGradient
       x1="26"
       y1="22"
       x2="26"
       y2="8"
       id="linearGradient3834"
       xlink:href="#linearGradient3827"
       gradientUnits="userSpaceOnUse" />
    <linearGradient
       id="linearGradient3275">
      <stop
         id="stop3277"
         style="stop-color:white;stop-opacity:0"
         offset="0" />
      <stop
         id="stop3283"
         style="stop-color:white;stop-opacity:1"
         offset="0.245" />
      <stop
         id="stop3285"
         style="stop-color:white;stop-opacity:1"
         offset="0.77350003" />
      <stop
         id="stop3279"
         style="stop-color:white;stop-opacity:0"
         offset="1" />
    </linearGradient>
    <linearGradient
       x1="44.994774"
       y1="17.5"
       x2="3.0052247"
       y2="17.5"
       id="linearGradient3281"
       xlink:href="#linearGradient3275"
       gradientUnits="userSpaceOnUse"
       spreadMethod="reflect" />
  </defs>
  <g
     id="layer1">
    <g
       transform="matrix(0.9926623,0,0,0.9761474,0.2751901,1.2929634)"
       id="g3305"
       style="opacity:0.4;display:inline">
      <rect
         width="2.9601951"
         height="15.366531"
         x="-3.6903627"
         y="-47.848343"
         transform="scale(-1,-1)"
         id="rect2484"
         style="fill:url(#radialGradient3310);fill-opacity:1;stroke:none" />
      <rect
         width="40.41172"
         height="15.366531"
         x="3.6903627"
         y="32.481812"
         id="rect2486"
         style="fill:url(#linearGradient3312);fill-opacity:1;stroke:none" />
      <rect
         width="2.9601951"
         height="15.366531"
         x="44.110001"
         y="-47.848343"
         transform="scale(1,-1)"
         id="rect3444"
         style="fill:url(#radialGradient3314);fill-opacity:1;stroke:none;display:inline" />
    </g>
    <path
       d="m 9.010725,8.5 29.497723,0 c 1.721985,0 2.496922,-0.2865505 2.991552,1 l 3.001734,8 0,25.673912 c 0,1.553304 0.10293,1.315976 -1.619063,1.315976 l -37.7653422,0 c -1.7219924,0 -1.6190635,0.237328 -1.6190635,-1.315976 L 3.4982653,17.5 6.5,9.5 c 0.4808316,-1.2605622 0.7887325,-1 2.510725,-1 z"
       id="path2488"
       style="fill:url(#linearGradient3197);fill-opacity:1;fill-rule:nonzero;stroke:url(#linearGradient3293);stroke-width:0.99420077;stroke-linecap:round;stroke-linejoin:miter;stroke-miterlimit:4;stroke-opacity:1;stroke-dasharray:none;stroke-dashoffset:0;marker:none;visibility:visible;display:block;overflow:visible" />
    <path
       d="m 9.948194,9.5129459 27.652872,0 c 1.614293,0 2.61338,0.5565361 3.289521,2.0860281 l 2.32894,6.419721 0,23.144557 c 0,1.460676 -0.818759,2.196085 -2.433056,2.196085 l -33.7332031,0 c -1.6142934,0 -2.2727761,-0.808827 -2.2727761,-2.269504 l 0,-23.071138 2.2538109,-6.55736 C 7.4850649,10.275943 8.3338968,9.5129459 9.948194,9.5129459 z"
       id="path2490"
       style="opacity:0.50549454;fill:none;stroke:url(#linearGradient2659);stroke-width:0.74211526;stroke-linecap:butt;stroke-linejoin:miter;stroke-miterlimit:4;stroke-opacity:1;stroke-dasharray:none;stroke-dashoffset:0;marker:none;visibility:visible;display:block;overflow:visible" />
    <path
       d="m 22,8 c 1.333333,0 2.666667,0 4,0 0,4.666667 0,9.333333 0,14 -0.393729,0 -0.787458,0 -1.181187,0 -0.403125,0 -0.80625,0 -1.209375,0 -0.324529,0 -0.649057,0 -0.973585,0 C 22.423902,22 22.211951,22 22,22 22,17.333333 22,12.666667 22,8 z"
       id="rect3326"
       style="opacity:0.4;fill:url(#linearGradient3834);fill-opacity:1;fill-rule:nonzero;stroke:none;stroke-width:1;marker:none;visibility:visible;display:inline;overflow:visible;enable-background:accumulate" />
    <path
       d="m 3.5052248,17.5 40.9895502,0"
       id="path3273"
       style="opacity:0.4;fill:none;stroke:url(#linearGradient3281);stroke-width:1px;stroke-linecap:square;stroke-linejoin:miter;stroke-opacity:1;display:inline" />
    <path
       d="m 17.538345,34.494919 c -0.0059,2.204164 0.01205,4.408725 -0.0095,6.612628 0.184595,0.688873 -0.812482,0.483109 -0.650508,1.047914 0,0.402486 0,0.804972 0,1.207458 1.088793,0.05202 2.113594,-0.807571 2.203407,-1.905052 0.09432,-2.318041 0.05259,-4.642358 0.05259,-6.962948 -0.531999,0 -1.063999,0 -1.595999,0 z m 0,-0.720001 c 0.532,0 1.064,0 1.595999,0 0,-0.5 0,-1 0,-1.5 -0.531999,0 -1.063999,0 -1.595999,0 0,0.5 0,1 0,1.5 z m 9.633187,0.720001 c -0.488,0 -0.976,0 -1.463999,0 0,0.296 0,0.592 0,0.888 -0.586313,-0.873692 -1.71207,-1.177234 -2.710233,-1.005845 -1.43786,0.165821 -2.615857,1.39817 -2.79608,2.821426 -0.264329,1.466639 0.401434,3.141916 1.805429,3.775873 1.156261,0.543738 2.707707,0.450044 3.58156,-0.565348 0.22237,-0.297462 0.07853,0.344186 0.119324,0.513141 -0.103716,0.341265 0.286049,0.189049 0.491896,0.220752 0.324034,0 0.648068,0 0.972103,0 0,-2.216 0,-4.432 0,-6.647999 z m -3.467999,1.307998 c 1.020032,-0.04883 1.911868,0.83476 1.946557,1.84109 0.104806,0.944516 -0.477117,2.01841 -1.483058,2.151161 -0.955762,0.215892 -2.084431,-0.305936 -2.325629,-1.303504 -0.314659,-1.044195 0.225573,-2.375825 1.35415,-2.627433 0.165862,-0.04175 0.33703,-0.06135 0.50798,-0.06131 l 0,-10e-7 z m 4.657875,5.340001 c 0.532,0 1.063999,0 1.595999,0 0.0128,-1.352723 -0.02676,-2.707612 0.02199,-4.058859 0.0257,-0.727717 0.701391,-1.253367 1.406016,-1.209141 0,-0.512001 0,-1.024001 0,-1.536001 -0.632967,-0.0731 -1.252543,0.243878 -1.56,0.804001 -0.02792,-0.200696 0.05421,-0.511432 -0.03784,-0.647999 -0.475387,0 -0.950774,0 -1.426161,0 0,2.215999 0,4.431999 0,6.647999 z"
       id="text2427"
       style="font-size:12px;font-style:normal;font-variant:normal;font-weight:bold;font-stretch:normal;text-align:start;line-height:125%;writing-mode:lr-tb;text-anchor:start;opacity:0.4;fill:black;fill-opacity:1;stroke:none;font-family:URW Gothic L;-inkscape-font-specification:URW Gothic L Book" />
  </g>
</svg>

<?xml version="1.0" encoding="UTF-8" standalone="no"?>
<!-- Created with Inkscape (http://www.inkscape.org/) -->
<svg
   xmlns:svg="http://www.w3.org/2000/svg"
   xmlns="http://www.w3.org/2000/svg"
   xmlns:xlink="http://www.w3.org/1999/xlink"
   version="1.0"
   width="48"
   height="48"
   id="svg3208">
  <defs
     id="defs3210">
    <radialGradient
       cx="5"
       cy="41.5"
       r="5"
       fx="5"
       fy="41.5"
       id="radialGradient3314"
       xlink:href="#linearGradient3681"
       gradientUnits="userSpaceOnUse"
       gradientTransform="matrix(0.5938225,0,0,1.5366531,41.140892,-103.93618)" />
    <linearGradient
       id="linearGradient3703">
      <stop
         id="stop3705"
         style="stop-color:#000000;stop-opacity:0"
         offset="0" />
      <stop
         id="stop3711"
         style="stop-color:#000000;stop-opacity:1"
         offset="0.5" />
      <stop
         id="stop3707"
         style="stop-color:#000000;stop-opacity:0"
         offset="1" />
    </linearGradient>
    <linearGradient
       x1="17.554192"
       y1="46.000275"
       x2="17.554192"
       y2="34.999718"
       id="linearGradient3312"
       xlink:href="#linearGradient3703"
       gradientUnits="userSpaceOnUse"
       gradientTransform="matrix(1.7570316,0,0,1.3969574,-17.394014,-16.411698)" />
    <linearGradient
       id="linearGradient3681">
      <stop
         id="stop3683"
         style="stop-color:#000000;stop-opacity:1"
         offset="0" />
      <stop
         id="stop3685"
         style="stop-color:#000000;stop-opacity:0"
         offset="1" />
    </linearGradient>
    <radialGradient
       cx="5"
       cy="41.5"
       r="5"
       fx="5"
       fy="41.5"
       id="radialGradient3310"
       xlink:href="#linearGradient3681"
       gradientUnits="userSpaceOnUse"
       gradientTransform="matrix(0.5938225,0,0,1.5366531,-6.6594735,-103.93618)" />
    <linearGradient
       id="linearGradient3295">
      <stop
         id="stop3297"
         style="stop-color:#c9af8b;stop-opacity:1"
         offset="0" />
      <stop
         id="stop3299"
         style="stop-color:#ad8757;stop-opacity:1"
         offset="0.23942046" />
      <stop
         id="stop3301"
         style="stop-color:#c2a57f;stop-opacity:1"
         offset="0.27582464" />
      <stop
         id="stop3303"
         style="stop-color:#9d7d53;stop-opacity:1"
         offset="1" />
    </linearGradient>
    <linearGradient
       x1="15.464298"
       y1="7.9756851"
       x2="15.464298"
       y2="45.04248"
       id="linearGradient3293"
       xlink:href="#linearGradient3295"
       gradientUnits="userSpaceOnUse" />
    <linearGradient
       id="linearGradient3199">
      <stop
         id="stop3201"
         style="stop-color:#dac197;stop-opacity:1"
         offset="0" />
      <stop
         id="stop3203"
         style="stop-color:#c1a581;stop-opacity:1"
         offset="0.23942046" />
      <stop
         id="stop3205"
         style="stop-color:#dbc298;stop-opacity:1"
         offset="0.27582464" />
      <stop
         id="stop3207"
         style="stop-color:#a68b60;stop-opacity:1"
         offset="1" />
    </linearGradient>
    <linearGradient
       x1="24.822832"
       y1="15.377745"
       x2="24.996943"
       y2="37.27668"
       id="linearGradient3197"
       xlink:href="#linearGradient3199"
       gradientUnits="userSpaceOnUse"
       gradientTransform="matrix(1.2822251,0,0,1.5572619,-6.0701918,-15.290756)" />
    <linearGradient
       id="linearGradient4559">
      <stop
         id="stop4561"
         style="stop-color:#ffffff;stop-opacity:0"
         offset="0" />
      <stop
         id="stop4563"
         style="stop-color:#ffffff;stop-opacity:0"
         offset="1" />
    </linearGradient>
    <linearGradient
       x1="23.451576"
       y1="30.554907"
       x2="43.00663"
       y2="45.934479"
       id="linearGradient2659"
       xlink:href="#linearGradient4559"
       gradientUnits="userSpaceOnUse"
       gradientTransform="matrix(1.2822251,0,0,1.1746872,-6.0701918,-5.3031677)" />
    <linearGradient
       id="linearGradient3827">
      <stop
         id="stop3829"
         style="stop-color:#ffffff;stop-opacity:1"
         offset="0" />
      <stop
         id="stop4295"
         style="stop-color:#ffffff;stop-opacity:1"
         offset="0.3021296" />
      <stop
         id="stop4293"
         style="stop-color:#ffffff;stop-opacity:0.6901961"
         offset="0.34361121" />
      <stop
         id="stop3832"
         style="stop-color:#ffffff;stop-opacity:0"
         offset="1" />
    </linearGradient>
    <linearGradient
       x1="26"
       y1="22"
       x2="26"
       y2="8"
       id="linearGradient3834"
       xlink:href="#linearGradient3827"
       gradientUnits="userSpaceOnUse" />
    <linearGradient
       id="linearGradient3275">
      <stop
         id="stop3277"
         style="stop-color:#ffffff;stop-opacity:0"
         offset="0" />
      <stop
         id="stop3283"
         style="stop-color:#ffffff;stop-opacity:1"
         offset="0.245" />
      <stop
         id="stop3285"
         style="stop-color:#ffffff;stop-opacity:1"
         offset="0.77350003" />
      <stop
         id="stop3279"
         style="stop-color:#ffffff;stop-opacity:0"
         offset="1" />
    </linearGradient>
    <linearGradient
       x1="44.994774"
       y1="17.5"
       x2="3.0052247"
       y2="17.5"
       id="linearGradient3281"
       xlink:href="#linearGradient3275"
       gradientUnits="userSpaceOnUse"
       spreadMethod="reflect" />
  </defs>
  <g
     id="layer1">
    <g
       transform="matrix(0.9926623,0,0,0.9761474,0.2751901,1.2929634)"
       id="g3305"
       style="opacity:0.4;display:inline">
      <rect
         width="2.9601951"
         height="15.366531"
         x="-3.6903627"
         y="-47.848343"
         transform="scale(-1,-1)"
         id="rect2484"
         style="opacity:1;fill:url(#radialGradient3310);fill-opacity:1;stroke:none;stroke-width:1;stroke-linecap:round;stroke-linejoin:miter;stroke-miterlimit:4;stroke-dasharray:none;stroke-dashoffset:1.20000057;stroke-opacity:1" />
      <rect
         width="40.41172"
         height="15.366531"
         x="3.6903627"
         y="32.481812"
         id="rect2486"
         style="opacity:1;fill:url(#linearGradient3312);fill-opacity:1;stroke:none;stroke-width:1;stroke-linecap:round;stroke-linejoin:miter;stroke-miterlimit:4;stroke-dasharray:none;stroke-dashoffset:1.20000057;stroke-opacity:1" />
      <rect
         width="2.9601951"
         height="15.366531"
         x="44.110001"
         y="-47.848343"
         transform="scale(1,-1)"
         id="rect3444"
         style="opacity:1;fill:url(#radialGradient3314);fill-opacity:1;stroke:none;stroke-width:1;stroke-linecap:round;stroke-linejoin:miter;stroke-miterlimit:4;stroke-dasharray:none;stroke-dashoffset:1.20000057;stroke-opacity:1;display:inline" />
    </g>
    <path
       d="M 9.010725,8.5 L 38.508448,8.5 C 40.230433,8.5 41.00537,8.2134495 41.5,9.5 L 44.501734,17.5 L 44.501734,43.173912 C 44.501734,44.727216 44.604664,44.489888 42.882671,44.489888 L 5.1173288,44.489888 C 3.3953364,44.489888 3.4982653,44.727216 3.4982653,43.173912 L 3.4982653,17.5 L 6.5,9.5 C 6.9808316,8.2394378 7.2887325,8.5 9.010725,8.5 z"
       id="path2488"
       style="fill:url(#linearGradient3197);fill-opacity:1;fill-rule:nonzero;stroke:url(#linearGradient3293);stroke-width:0.99420077;stroke-linecap:round;stroke-linejoin:miter;marker:none;marker-start:none;marker-mid:none;marker-end:none;stroke-miterlimit:4;stroke-dasharray:none;stroke-dashoffset:0;stroke-opacity:1;visibility:visible;display:block;overflow:visible" />
    <path
       d="M 9.948194,9.5129459 L 37.601066,9.5129459 C 39.215359,9.5129459 40.214446,10.069482 40.890587,11.598974 L 43.219527,18.018695 L 43.219527,41.163252 C 43.219527,42.623928 42.400768,43.359337 40.786471,43.359337 L 7.0532679,43.359337 C 5.4389745,43.359337 4.7804918,42.55051 4.7804918,41.089833 L 4.7804918,18.018695 L 7.0343027,11.461335 C 7.4850649,10.275943 8.3338968,9.5129459 9.948194,9.5129459 z"
       id="path2490"
       style="opacity:0.50549454;fill:none;fill-opacity:1;fill-rule:nonzero;stroke:url(#linearGradient2659);stroke-width:0.74211526;stroke-linecap:butt;stroke-linejoin:miter;marker:none;marker-start:none;marker-mid:none;marker-end:none;stroke-miterlimit:4;stroke-dasharray:none;stroke-dashoffset:0;stroke-opacity:1;visibility:visible;display:block;overflow:visible" />
    <path
       d="M 22,8 C 23.333333,8 24.666667,8 26,8 C 26,12.666667 26,17.333333 26,22 C 25.606271,22 25.212542,22 24.818813,22 C 24.415688,22 24.012563,22 23.609438,22 C 23.284909,22 22.960381,22 22.635853,22 C 22.423902,22 22.211951,22 22,22 C 22,17.333333 22,12.666667 22,8 z"
       id="rect3326"
       style="opacity:0.4;fill:url(#linearGradient3834);fill-opacity:1;fill-rule:nonzero;stroke:none;stroke-width:1;stroke-linecap:square;stroke-linejoin:round;marker:none;marker-start:none;marker-mid:none;marker-end:none;stroke-miterlimit:4;stroke-dasharray:none;stroke-dashoffset:0;stroke-opacity:1;visibility:visible;display:inline;overflow:visible;enable-background:accumulate" />
    <path
       d="M 3.5052248,17.5 L 44.494775,17.5"
       id="path3273"
       style="opacity:0.4;fill:none;fill-rule:evenodd;stroke:url(#linearGradient3281);stroke-width:1px;stroke-linecap:square;stroke-linejoin:miter;stroke-opacity:1;display:inline" />
    <path
       d="M 17.538345,34.494919 C 17.532466,36.699083 17.550391,38.903644 17.528853,41.107547 C 17.713448,41.79642 16.716371,41.590656 16.878345,42.155461 C 16.878345,42.557947 16.878345,42.960433 16.878345,43.362919 C 17.967138,43.414935 18.991939,42.555348 19.081752,41.457867 C 19.176071,39.139826 19.134344,36.815509 19.134344,34.494919 C 18.602345,34.494919 18.070345,34.494919 17.538345,34.494919 z M 17.538345,33.774918 C 18.070345,33.774918 18.602345,33.774918 19.134344,33.774918 C 19.134344,33.274918 19.134344,32.774918 19.134344,32.274918 C 18.602345,32.274918 18.070345,32.274918 17.538345,32.274918 C 17.538345,32.774918 17.538345,33.274918 17.538345,33.774918 z M 27.171532,34.494919 C 26.683532,34.494919 26.195532,34.494919 25.707533,34.494919 C 25.707533,34.790919 25.707533,35.086919 25.707533,35.382919 C 25.12122,34.509227 23.995463,34.205685 22.9973,34.377074 C 21.55944,34.542895 20.381443,35.775244 20.20122,37.1985 C 19.936891,38.665139 20.602654,40.340416 22.006649,40.974373 C 23.16291,41.518111 24.714356,41.424417 25.588209,40.409025 C 25.810579,40.111563 25.666743,40.753211 25.707533,40.922166 C 25.603817,41.263431 25.993582,41.111215 26.199429,41.142918 C 26.523463,41.142918 26.847497,41.142918 27.171532,41.142918 C 27.171532,38.926918 27.171532,36.710918 27.171532,34.494919 z M 23.703533,35.802917 C 24.723565,35.754091 25.615401,36.637677 25.65009,37.644007 C 25.754896,38.588523 25.172973,39.662417 24.167032,39.795168 C 23.21127,40.01106 22.082601,39.489232 21.841403,38.491664 C 21.526744,37.447469 22.066976,36.115839 23.195553,35.864231 C 23.361415,35.822484 23.532583,35.80288 23.703533,35.802918 L 23.703533,35.802917 z M 28.361408,41.142918 C 28.893408,41.142918 29.425407,41.142918 29.957407,41.142918 C 29.970209,39.790195 29.930647,38.435306 29.979392,37.084059 C 30.005094,36.356342 30.680783,35.830692 31.385408,35.874918 C 31.385408,35.362917 31.385408,34.850917 31.385408,34.338917 C 30.752441,34.265818 30.132865,34.582795 29.825408,35.142918 C 29.79749,34.942222 29.879615,34.631486 29.787569,34.494919 C 29.312182,34.494919 28.836795,34.494919 28.361408,34.494919 C 28.361408,36.710918 28.361408,38.926918 28.361408,41.142918 z"
       id="text2427"
       style="font-size:12px;font-style:normal;font-variant:normal;font-weight:bold;font-stretch:normal;text-align:start;line-height:125%;writing-mode:lr-tb;text-anchor:start;opacity:0.4;fill:#000000;fill-opacity:1;stroke:none;stroke-width:1px;stroke-linecap:butt;stroke-linejoin:miter;stroke-opacity:1;font-family:URW Gothic L;-inkscape-font-specification:URW Gothic L Book" />
  </g>
</svg>
